UI/Core-UI/SVG/volume-off_outline_24px.svg

<svg width="24" height="24" viewBox="0 0 24 24" fill="none" xmlns="http://www.w3.org/2000/svg">
<path d="M12.24 8L10.83 9.33C11.2932 9.77023 11.6373 10.3207 11.83 10.93L13.34 9.42C13.0549 8.88878 12.6831 8.40886 12.24 8ZM13.65 17.59L15.07 19C16.617 17.4809 17.6129 15.4891 17.9 13.34L13.65 17.59ZM16.29 6.47C15.9337 5.94033 15.5249 5.44786 15.07 5L13.65 6.41C14.1095 6.86049 14.5094 7.36795 14.84 7.92L16.29 6.47ZM21.77 9.47L20 11.27C20 11.51 20 11.75 20 12C20.0057 15.2097 18.7401 18.291 16.48 20.57L17.9 22C20.5304 19.3368 22.0038 15.7432 22 12C21.9997 11.1515 21.9227 10.3047 21.77 9.47ZM19.22 3.55C18.8129 3.0062 18.372 2.48852 17.9 2L16.48 3.43C16.9592 3.91361 17.3942 4.43903 17.78 5L19.22 3.55ZM5 8H2V17H5L5.51 17.25L7 15.76L5.89 15.21L5.47 15H4V10H5.67L6.2 9.6L7 9V15.76L9 13.76V5L5 8ZM20.59 5L22 6.41L7.42 21L6 19.58L20.59 5Z" fill="#0F1621"/>
</svg>

<svg xmlns="http://www.w3.org/2000/svg" width="24" height="24" viewBox="0 0 24 24"><rect width="24" height="24" style="fill:none"/><path d="M12.24,8,10.83,9.33a3.78,3.78,0,0,1,1,1.6l1.51-1.51A5.42,5.42,0,0,0,12.24,8Zm1.41,9.59L15.07,19a9.74,9.74,0,0,0,2.83-5.66ZM16.29,6.47A9.52,9.52,0,0,0,15.07,5L13.65,6.41a7.54,7.54,0,0,1,1.19,1.51Zm5.48,3L20,11.27c0,.24,0,.48,0,.73a12.14,12.14,0,0,1-3.52,8.57L17.9,22A14.21,14.21,0,0,0,22,12,14.09,14.09,0,0,0,21.77,9.47ZM19.22,3.55h0A16.22,16.22,0,0,0,17.9,2L16.48,3.43A11.44,11.44,0,0,1,17.78,5ZM5,8H2v9H5l.51.25L7,15.76l-1.11-.55L5.47,15H4V10H5.67l.53-.4L7,9v6.76l2-2V5ZM20.59,5,22,6.41,7.42,21,6,19.58Z"/></svg>
